X: 949
T: Sweet Bundy
B: jims roots
M:C|
L:1/8
R: Reel
Q: 1/4=100
K:D
V:1 
%Q:"Moderate"
dB|:"D"A2[F2A2]A2[F2A2]|AFAd f2dc|"G"B2G2B2G2|BGBd "A7"e2dB|
"D"A2[F2A2]A2[F2A2]|DFAd f2df|"A7"edef gecA|[1"D"[d3f3]e [d2f2][d2f2]:|[2 "D"[d3f3]e [d2f2]||
A2-|:"D"A2fg f3e|"G"dcBA B2cd|"A7"e2 ef gfga|ba2b a2A2-|
"D"A2fg f3e| "G"dcBA B2cd|"A7"e2 ef gecc|"D"[de]-[d2f2][de] [d2f2]:|
% abcbook-tune_id 6298c297b7bb6de6628fcf40


% abcbook-boost 0
% abcbook-tablature 
% abcbook-transpose 
% abcbook-lastupdated 1654178455770
% abcbook-soundfonts 
% abcbook-repeats 1


